packages/core/src/svgs/tokens/mono/CWS.svg

<svg width="24" height="24" viewBox="0 0 24 24" fill="none" xmlns="http://www.w3.org/2000/svg">
<path d="M9.89475 10.5893L11.4737 7.26294L17.2632 14.4419V14.9155C16.07 15.3199 14.8302 15.571 13.5737 15.6629L9.89475 10.5893ZM7.26318 14.6524C7.4316 14.7525 7.63161 14.8419 7.84213 14.9261L9.82635 11.2787L7.26318 7.78925V14.6524Z" fill="white"/>
<path fill-rule="evenodd" clip-rule="evenodd" d="M12 22C13.3132 22 14.6136 21.7414 15.8268 21.2388C17.0401 20.7362 18.1424 19.9996 19.0711 19.0711C19.9997 18.1425 20.7363 17.0401 21.2388 15.8269C21.7413 14.6135 21.9999 13.3132 21.9999 12C21.9999 10.6868 21.7413 9.38642 21.2388 8.17316C20.7363 6.9599 19.9997 5.85751 19.0711 4.92893C18.1424 4.00034 17.0401 3.26374 15.8268 2.76121C14.6136 2.25866 13.3132 2 12 2C9.34784 2 6.80429 3.05356 4.92893 4.92893C3.05357 6.80429 2 9.34784 2 12C2 14.6522 3.05357 17.1957 4.92893 19.0711C6.80429 20.9464 9.34784 22 12 22ZM12 21.4736C13.244 21.4736 14.476 21.2286 15.6254 20.7525C16.7749 20.2764 17.8192 19.5786 18.6989 18.6989C19.5787 17.8192 20.2765 16.7748 20.7526 15.6255C21.2286 14.476 21.4737 13.2441 21.4737 12C21.4737 10.7559 21.2286 9.52398 20.7526 8.37458C20.2765 7.22518 19.5787 6.1808 18.6989 5.30109C17.8192 4.42137 16.7749 3.72355 15.6254 3.24745C14.476 2.77136 13.244 2.52631 12 2.52631C9.48743 2.52631 7.07776 3.52443 5.3011 5.30109C3.52444 7.07775 2.52633 9.48742 2.52633 12C2.52633 14.5126 3.52444 16.9222 5.3011 18.6989C7.07776 20.4756 9.48743 21.4736 12 21.4736ZM7.26316 15.5105C11.6473 17.121 15.7579 16.1789 17.2631 15.5105V16.0579C13.3842 17.6105 8.97895 16.7053 7.26316 16.0579V15.5105ZM11.4737 7.26315V12.7895L11.5736 12.9263L13.4843 15.6737V15.6842C14.8369 15.6316 16.5684 15.1474 17.2631 14.9105V14.4421L11.4737 7.26315ZM15.1579 11.0632L17.2631 13.5789V7.78946L15.1579 11.0632ZM9.82633 11.279L7.84737 14.9263C9.36842 15.5264 11.8684 15.7368 13.0526 15.6842L9.82633 11.2842V11.279Z" fill="white"/>
</svg>

<svg xmlns="http://www.w3.org/2000/svg" width="24" height="24" fill="none" viewBox="0 0 24 24">
    <path fill="#fff" d="m9.895 10.59 1.579-3.327 5.79 7.179v.473a15 15 0 0 1-3.69.748zm-2.632 4.062c.169.1.369.19.58.274l1.983-3.647-2.563-3.49z"/>
    <path fill="#fff" fill-rule="evenodd" d="M12 22a9.999 9.999 0 0 0 3.827-19.239A10 10 0 1 0 12 22m0-.526a9.474 9.474 0 1 0 0-18.948 9.474 9.474 0 0 0 0 18.948M7.263 15.51c4.384 1.61 8.495.668 10 0v.547c-3.879 1.552-8.284.647-10 0zm4.21-8.248v5.527l.1.136 1.911 2.748v.01c1.353-.052 3.084-.537 3.78-.773v-.469zm3.685 3.8 2.105 2.516v-5.79zm-5.332.216-1.979 3.647c1.521.6 4.021.81 5.206.758l-3.227-4.4z" clip-rule="evenodd"/>
</svg>
